src/basic/500/u2193-down.svg

<svg width="21" height="28" viewBox="0 0 21 28" fill="none" xmlns="http://www.w3.org/2000/svg">
<path fill-rule="evenodd" clip-rule="evenodd" d="M11.0241,25.0457l8.4825,-8.4826l0.7071,0.7071l-9.3333,9.3334l-0.3536,0.3535l-0.3535,-0.3535l-9.33337,-9.3334l0.70711,-0.7071l8.47706,8.4771v-25.0402h1z" fill="black"/>
</svg>

<svg width="21" height="28" viewBox="0 0 21 28" fill="none" xmlns="http://www.w3.org/2000/svg">
<path fill-rule="evenodd" clip-rule="evenodd" d="M11.0241 25.0457L19.5066 16.5631L20.2137 17.2702L10.8804 26.6036L10.5268 26.9571L10.1733 26.6036L0.83993 17.2702L1.54704 16.5631L10.0241 25.0402L10.0241 1.2151e-07L11.0241 1.09585e-07L11.0241 25.0457Z" fill="black"/>
</svg>
